images/icons/hotarea.svg

<!-- Generated by IcoMoon.io -->
<svg version="1.1" xmlns="http://www.w3.org/2000/svg" width="16" height="16" viewBox="0 0 16 16">
<title>hotarea</title>
<path d="M12.733 3.267c-1.267-1.267-2.933-1.933-4.733-1.933s-3.467 0.667-4.733 1.933c-1.267 1.267-1.933 2.933-1.933 4.733s0.667 3.467 1.933 4.733c1.267 1.267 2.933 1.933 4.733 1.933s3.467-0.667 4.733-1.933c1.267-1.267 1.933-2.933 1.933-4.733s-0.667-3.467-1.933-4.733zM8 13.8c-3.2 0-5.8-2.6-5.8-5.8s2.6-5.8 5.8-5.8c1.4 0 2.733 0.533 3.733 1.4l-1.6 1.6c-0.6-0.467-1.4-0.733-2.2-0.733-1.933 0-3.533 1.6-3.533 3.533s1.6 3.533 3.533 3.533c1.933 0 3.533-1.6 3.533-3.533 0-0.8-0.267-1.6-0.733-2.2l1.6-1.6c0.867 1.067 1.4 2.4 1.4 3.733 0.001 0.043 0.002 0.095 0.002 0.146 0 3.16-2.561 5.721-5.721 5.721-0.005 0-0.010 0-0.015 0h0.001zM7.667 8.333c0.2 0.2 0.467 0.2 0.6 0l1.867-1.867c0.333 0.467 0.467 1 0.467 1.533 0 1.467-1.2 2.667-2.667 2.667s-2.667-1.2-2.667-2.667 1.2-2.667 2.667-2.667c0.6 0 1.133 0.2 1.533 0.467l-1.867 1.867c-0.067 0.2-0.067 0.467 0.067 0.667z"></path>
</svg>

<svg xmlns="http://www.w3.org/2000/svg" width="16" height="16" viewBox="0 0 16 16"><title>hotarea</title><path d="M12.733 3.267C11.466 2 9.8 1.334 8 1.334s-3.467.667-4.733 1.933C2 4.534 1.334 6.2 1.334 8s.667 3.467 1.933 4.733C4.534 14 6.2 14.666 8 14.666s3.467-.667 4.733-1.933C14 11.466 14.666 9.8 14.666 8s-.667-3.467-1.933-4.733zM8 13.8c-3.2 0-5.8-2.6-5.8-5.8S4.8 2.2 8 2.2c1.4 0 2.733.533 3.733 1.4l-1.6 1.6c-.6-.467-1.4-.733-2.2-.733C6 4.467 4.4 6.067 4.4 8s1.6 3.533 3.533 3.533c1.933 0 3.533-1.6 3.533-3.533 0-.8-.267-1.6-.733-2.2l1.6-1.6c.867 1.067 1.4 2.4 1.4 3.733l.002.146A5.72 5.72 0 0 1 8.014 13.8h-.015H8zm-.333-5.467c.2.2.467.2.6 0l1.867-1.867c.333.467.467 1 .467 1.533 0 1.467-1.2 2.667-2.667 2.667s-2.667-1.2-2.667-2.667 1.2-2.667 2.667-2.667c.6 0 1.133.2 1.533.467L7.6 7.666c-.067.2-.067.467.067.667z"/></svg>
